X: 240
T:Ave verum corpus
N: Derived from Jos2102-Ave_verum_corpus.krn
C: Josquin des Prez
%%abc-version 2.0
%%abcx-abcm2ps-target-version 5.9.1 (29 Sep 2008)
%%abc-creator hum2abc beta
%%abcx-conversion-date 2019/02/12 16:15:50
%%abc-edited-by Jesse Rodin
%%abc-edited-by Will Watson
%%abcx-initial-encoding-date 04/16/2011
%%humdrum-veritas 2141240896
%%humdrum-veritas-data 1371502037
%%linebreak <none>
%%barnumbers 0
L: 1/4
M: 2/1
Q: 1/2=120
V: 1 clef=treble
V: 2 clef=treble
V: 3 clef=treble-8
K: C
[V:1] z8 | 
[V:2] F8 | 
[V:3] z8 | 
[V:1] z8 | 
[V:2] G4A4- | 
[V:3] z8 | 
[V:1] c8 | 
[V:2] A2F2F4- | 
[V:3] z8 | 
[V:1] d4e4- | 
[V:2] F4c4- | 
[V:3] z8 | 
[V:1] e2c2c4- | 
[V:2] c2_BAA3F | 
[V:3] z8 | 
[V:1] c4f4 | 
[V:2] F8 | 
[V:3] z8 | 
[V:1] e4d4- | 
[V:2] z4_B4- | 
[V:3] z8 | 
[V:1] d4c4 | 
[V:2] B4A4 | 
[V:3] z8 | 
[V:1] z4f4 | 
[V:2] G4F4 | 
[V:3] z8 | 
[V:1] e2d4c_B | 
[V:2] G8 | 
[V:3] z8 | 
[V:1] c4F4 | 
[V:2] A8- | 
[V:3] z8 | 
[V:1] z4c4 | 
[V:2] A8 | 
[V:3] z8 | 
[V:1] d4f4 | 
[V:2] z8 | 
[V:3] z8 | 
[V:1] e3de2d2- | 
[V:2] G8 | 
[V:3] z8 | 
[V:1] dcdcd2c2- | 
[V:2] F8 | 
[V:3] z8 | 
[V:1] c2_BAG4 | 
[V:2] E8 | 
[V:3] z8 | 
[V:1] F4f4 | 
[V:2] F8 | 
[V:3] z8 | 
[V:1] e4d4 | 
[V:2] G8 | 
[V:3] z8 | 
[V:1] c4f4- | 
[V:2] A6F2 | 
[V:3] z8 | 
[V:1] f4e4 | 
[V:2] F4G4 | 
[V:3] z8 | 
[V:1] d4c4- | 
[V:2] _B4A4- | 
[V:3] z8 | 
[V:1] c2_B2A4 | 
[V:2] A2G2F4- | 
[V:3] z8 | 
[V:1] G3FG4 | 
[V:2] F2EDE4 | 
[V:3] z8 | 
[V:1] F8 ||  
[V:2] F8 ||  
[V:3] z8 ||  
[V:1]  [K:C] [K:clef=treble][M:2/1]z8 | 
[V:2]  [K:C] [K:clef=treble][M:2/1]F8 | 
[V:3]  [K:C] [K:clef=treble-8][M:2/1]F3GA2_B2- | 
[V:1] z8 | 
[V:2] G4A4- | 
[V:3] BGc3_BAG | 
[V:1] c8 | 
[V:2] A2F2F4- | 
[V:3] F2f4e2 | 
[V:1] d4e4- | 
[V:2] F4c4- | 
[V:3] d4c4- | 
[V:1] e2c2c4- | 
[V:2] c2_BAA3F | 
[V:3] c2def4- | 
[V:1] c4f4 | 
[V:2] F8 | 
[V:3] f2e2d4 | 
[V:1] e4d4- | 
[V:2] z4_B4- | 
[V:3] c4_B4- | 
[V:1] d4c4 | 
[V:2] B4A4 | 
[V:3] B2A2F2f2 | 
[V:1] z4f4 | 
[V:2] G4F4 | 
[V:3] e2c2d4 | 
[V:1] e2d4c_B | 
[V:2] G8 | 
[V:3] c2_B4AG | 
[V:1] c4F4 | 
[V:2] A8- | 
[V:3] F8- | 
[V:1] z4c4 | 
[V:2] A8 | 
[V:3] F4f4- | 
[V:1] d4f4 | 
[V:2] z8 | 
[V:3] f2e2d4 | 
[V:1] e3de2d2- | 
[V:2] G8 | 
[V:3] c3_BG3A | 
[V:1] dcdcd2c2- | 
[V:2] F8 | 
[V:3] _B3AF3G | 
[V:1] c2_BAG4 | 
[V:2] E8 | 
[V:3] A3_Bc4 | 
[V:1] F4f4 | 
[V:2] F8 | 
[V:3] F2f3ed2 | 
[V:1] e4d4 | 
[V:2] G8 | 
[V:3] c4_B3A | 
[V:1] c4f4- | 
[V:2] A6F2 | 
[V:3] F2f4e2 | 
[V:1] f4e4 | 
[V:2] F4G4 | 
[V:3] d4c4 | 
[V:1] d4c4- | 
[V:2] _B4A4- | 
[V:3] _B3AF4- | 
[V:1] c2_B2A4 | 
[V:2] A2G2F4- | 
[V:3] F2G2A2_B2 | 
[V:1] G3FG4 | 
[V:2] F2EDE4 | 
[V:3] c3dc4 | 
[V:1] F8 ||  
[V:2] F8 ||  
[V:3] F8 ||  
[V:1]  [K:C] [K:clef=treble][M:2/1]z8 | 
[V:2]  [K:C] [K:clef=treble][M:2/1]A6_B2 | 
[V:3]  [K:C] [K:clef=treble-8][M:2/1]z8 | 
[V:1] z8 | 
[V:2] c4d4 | 
[V:3] z8 | 
[V:1] A6_B2 | 
[V:2] c6_BA | 
[V:3] z8 | 
[V:1] c4d4 | 
[V:2] A2c2_B4 | 
[V:3] z8 | 
[V:1] c6_BA | 
[V:2] A6GF | 
[V:3] z8 | 
[V:1] A2c2_B4 | 
[V:2] F4G4 | 
[V:3] z8 | 
[V:1] A6GF | 
[V:2] A3_Bc2d2- | 
[V:3] z8 | 
[V:1] F4G4 | 
[V:2] dcA2_B3A | 
[V:3] z8 | 
[V:1] A3GAG_B2- | 
[V:2] F3EC2D2- | 
[V:3] z8 | 
[V:1] BAA4G2 | 
[V:2] DCA,2_B,4 | 
[V:3] z8 | 
[V:1] A3_Bc2F2- | 
[V:2] A,4z4 | 
[V:3] z8 | 
[V:1] F2EDC2D2 | 
[V:2] A8 | 
[V:3] z8 | 
[V:1] E4A4- | 
[V:2] G4F4- | 
[V:3] z8 | 
[V:1] A4G4 | 
[V:2] F2EDE2C2 | 
[V:3] z8 | 
[V:1] F6ED | 
[V:2] z2A4GF | 
[V:3] z8 | 
[V:1] E2C2D2C2 | 
[V:2] G2A2F2A2- | 
[V:3] z8 | 
[V:1] DCF4E2 | 
[V:2] A2GFG4 | 
[V:3] z8 | 
[V:1] FGA_Bc2d2- | 
[V:2] F6ED | 
[V:3] z8 | 
[V:1] dcA3_Bc2- | 
[V:2] F3EC3D | 
[V:3] z8 | 
[V:1] c_BG3AB2- | 
[V:2] E3FG3F | 
[V:3] z8 | 
[V:1] BAF3GA2- | 
[V:2] D3CD3E | 
[V:3] z8 | 
[V:1] A2F2G4 | 
[V:2] FCF4E2 | 
[V:3] z8 | 
[V:1] F8 ||  
[V:2] F8 ||  
[V:3] z8 ||  
[V:1]  [K:F] [K:clef=treble][M:2/1]z8 | 
[V:2]  [K:F] [K:clef=treble][M:2/1]A6B2 | 
[V:3]  [K:F] [K:clef=treble-8][M:2/1]F6G2 | 
[V:1] z8 | 
[V:2] c4d4 | 
[V:3] A4B4 | 
[V:1] A6B2 | 
[V:2] c6BA | 
[V:3] F6G2 | 
[V:1] c4d4 | 
[V:2] A2c2B4 | 
[V:3] A2F2B3A | 
[V:1] c6BA | 
[V:2] A6GF | 
[V:3] F6ED | 
[V:1] A2c2B4 | 
[V:2] F4G4 | 
[V:3] D2F2E4 | 
[V:1] A6GF | 
[V:2] A3Bc2d2- | 
[V:3] z2F4ED | 
[V:1] F4G4 | 
[V:2] dcA2B3A | 
[V:3] D2F2E4 | 
[V:1] A3GAGB2- | 
[V:2] F3EC2D2- | 
[V:3] z2F4ED | 
[V:1] BAA4G2 | 
[V:2] DCA,2B,4 | 
[V:3] D2F2E4 | 
[V:1] A3Bc2F2- | 
[V:2] A,4z4 | 
[V:3] z2F4ED | 
[V:1] F2EDC2D2 | 
[V:2] A8 | 
[V:3] F3GA3B | 
[V:1] E4A4- | 
[V:2] G4F4- | 
[V:3] c3d/e/f2F2- | 
[V:1] A4G4 | 
[V:2] F2EDE2C2 | 
[V:3] FGABc4 | 
[V:1] F6ED | 
[V:2] z2A4GF | 
[V:3] z4F4 | 
[V:1] E2C2D2C2 | 
[V:2] G2A2F2A2- | 
[V:3] c3AB2A2 | 
[V:1] DCF4E2 | 
[V:2] A2GFG4 | 
[V:3] F4z2C2 | 
[V:1] FGABc2d2- | 
[V:2] F6ED | 
[V:3] DEFGA2B2- | 
[V:1] dcA3Bc2- | 
[V:2] F3EC3D | 
[V:3] BAF3GA2- | 
[V:1] cBG3AB2- | 
[V:2] E3FG3F | 
[V:3] ABc3BG2- | 
[V:1] BAF3GA2- | 
[V:2] D3CD3E | 
[V:3] GAB3AF2- | 
[V:1] A2F2G4 | 
[V:2] FCF4E2 | 
[V:3] F2D2C4 | 
[V:1] F8 ||  
[V:2] F8 ||  
[V:3] F8 ||  
[V:1]  [K:F] [K:clef=treble][M:2/1]c8 | 
[V:2]  [K:F] [K:clef=treble][M:2/1]z8 | 
[V:3]  [K:F] [K:clef=treble-8][M:2/1]f6e2 | 
[V:1] d8 | 
[V:2] F8 | 
[V:3] d8 | 
[V:1] e6c2 | 
[V:2] G8 | 
[V:3] c8 | 
[V:1] c8 | 
[V:2] A6GF | 
[V:3] z4f4- | 
[V:1] f6e2 | 
[V:2] F8 | 
[V:3] f2e2d2c2 | 
[V:1] d3cd4 | 
[V:2] B6A2 | 
[V:3] B2A2G4 | 
[V:1] e6dc | 
[V:2] G3FG4 | 
[V:3] c6BA | 
[V:1] c3de2f2 | 
[V:2] !fermata!A8- | 
[V:3] A3Bc2d2 | 
[V:1] e2f4ed | 
[V:2] A8- | 
[V:3] c2d4cB | 
[V:1] !fermata!c8 ||  
[V:2] A8 ||  
[V:3] !fermata!A8 ||  
[V:1]  [K:F] [K:clef=treble][M:2/1]A3GABc2- | 
[V:2]  [K:F] [K:clef=treble][M:2/1]z8 | 
[V:3]  [K:F] [K:clef=treble-8][M:2/1]z4f4 | 
[V:1] c2BAG4 | 
[V:2] z8 | 
[V:3] e2d2e4 | 
[V:1] F6ED | 
[V:2] A3GABc2- | 
[V:3] f4z2f2 | 
[V:1] C4z2C2 | 
[V:2] c2BAG4 | 
[V:3] e3de4 | 
[V:1] DEFGAGA2- | 
[V:2] F6ED | 
[V:3] f2F3EFG | 
[V:1] AGAFG4 | 
[V:2] C4z2C2 | 
[V:3] ABcdefge | 
[V:1] FGABcBcd | 
[V:2] DEFGAGA2- | 
[V:3] f6ed | 
[V:1] e2f4e2 | 
[V:2] AGAFG4 | 
[V:3] c4z2c2 | 
[V:1] fedcd2cB | 
[V:2] F8 | 
[V:3] dcBAB2A2 | 
[V:1] AGA4GF | 
[V:2] F8 | 
[V:3] fedcd4 | 
[V:1] E8 |]  
[V:2] G8 |]  
[V:3] c8 |]  



